**kern	**silbe	**kern	**silbe
*ICvox	*	*ICvox	*
*a:	*	*a:	*
*M4/4	*	*M4/4	*
*clefG2	*	*clefG2	*
r;	.	r;	.
=1	=1	=1	=1
1r	.	1r	.
=2	=2	=2	=2
1r	.	1r	.
=3	=3	=3	=3
1r	.	1r	.
=4	=4	=4	=4
1r	.	1r	.
=5	=5	=5	=5
1r	.	1r	.
=6	=6	=6	=6
1r	.	1r	.
=7	=7	=7	=7
1r	.	1r	.
=8	=8	=8	=8
2.r	.	1r	.
8A	She's	.	.
8c	a	.	.
=9	=9	=9	=9
8e	ve-	1r	.
8e	-ry	.	.
8d	kink-	.	.
8c	-y	.	.
2[c	girl	.	.
=10	=10	=10	=10
8c]	_	1r	.
8r	.	.	.
4r	.	.	.
8r	.	.	.
8A	The	.	.
8A	kind	.	.
8c	you	.	.
=11	=11	=11	=11
8e	don't	1r	.
8f#	take	.	.
8e	home	.	.
8c	to	.	.
8c	mo-	.	.
4.[e	-ther	.	.
=12	=12	=12	=12
8e]	_	1r	.
8r	.	.	.
4r	.	.	.
4r	.	.	.
8e	She	.	.
8g	will	.	.
=13	=13	=13	=13
8a	ne-	1r	.
8a	-ver	.	.
8e	let	.	.
8d	your	.	.
8e	spi-	.	.
8d	-rits	.	.
8d	down	.	.
8[c	_	.	.
=14	=14	=14	=14
2c]	_	1r	.
4r	.	.	.
8A	once	.	.
8G	you	.	.
=15	=15	=15	=15
16A	get	1r	.
8G	her	.	.
8.A	off	.	.
8G	the	.	.
4d	street	.	.
4r	.	.	.
=16	=16	=16	=16
2r	.	1r	.
8r	.	.	.
8A	She	.	.
8A	likes	.	.
8c	the	.	.
=17	=17	=17	=17
4e	boys	1r	.
8d	in	.	.
8c	the	.	.
16d	band.	.	.
8.[c	_	.	.
4c]	_	.	.
=18	=18	=18	=18
2r	.	1r	.
8r	.	.	.
8A	She	.	.
8A	says	.	.
8c	that	.	.
=19	=19	=19	=19
8e	I'm	1r	.
8f#	their	.	.
8e	all	.	.
8c	time	.	.
8c	favor-	.	.
4.[e	-ite.	.	.
=20	=20	=20	=20
8e]	_	1r	.
8r	.	.	.
4r	.	.	.
4r	.	.	.
8e	When	.	.
8g	I	.	.
=21	=21	=21	=21
8a	make	1r	.
8a	my	.	.
8e	move	.	.
8d	to	.	.
8g	her	.	.
8e	room	.	.
8d	it's	.	.
8c	the	.	.
=22	=22	=22	=22
4d	right	1r	.
2c	time	.	.
8r	.	.	.
8G	She's	.	.
=23	=23	=23	=23
16A	ne-	1r	.
8G	-ver	.	.
8A	hard	.	.
8G	to	.	.
16[d	please	.	.
2d]	_	.	.
=24	=24	=24	=24
2r	.	1r	.
4.r	.	.	.
8G	That	.	.
=25	=25	=25	=25
8A	girl	1r	.
8G	is	.	.
16A	pre-	.	.
8G	-tty	.	.
8.d	wild	.	.
4.c	now	.	.
=26	=26	=26	=26
2r	.	1r	.
4.r	.	.	.
8G	The	.	.
=27	=27	=27	=27
8A	kin-	1r	.
16G	-da	.	.
8A	girl	.	.
16G	you	.	.
16d	read	.	.
8.d	a-	.	.
4.c	-bout	.	.
=28	=28	=28	=28
2r	.	1r	.
4.r	.	.	.
8G	That	.	.
=29	=29	=29	=29
8A	girl	1r	.
8G	is	.	.
16A	pre-	.	.
8G	-tty	.	.
8.d	kink-	.	.
4.c	-y	.	.
=30	=30	=30	=30
2r	.	1r	.
4.r	.	.	.
8G	I'd	.	.
=31	=31	=31	=31
8A	real-	1r	.
16G	-ly	.	.
8A	love	.	.
16G	to	.	.
4d	taste	.	.
4.c	her	.	.
=32	=32	=32	=32
1r	.	1r	.
=33	=33	=33	=33
4a	She's	1r	.
4g	al-	.	.
16e	-right	.	.
16d	_	.	.
8c	_	.	.
4r	.	.	.
=34	=34	=34	=34
4a	She's	1r	.
8.g	al-	.	.
16[a	-right	.	.
4a]	_	.	.
8r	.	.	.
8a	That	.	.
=35	=35	=35	=35
8r	.	1r	.
8cc	girl's	.	.
8a	_	.	.
8a	all	.	.
8g	_	.	.
8g	right	.	.
8e	_	.	.
8[d	_	.	.
=36	=36	=36	=36
8d]	_	1r	.
4d	with	.	.
8[c	me	.	.
2c_	_	.	.
=37	=37	=37	=37
2c]	_	1r	.
4.r	.	.	.
8[d	Yeah	.	.
=38	=38	=38	=38
8d]	_	1r	.
8c	_	.	.
2A	_	.	.
4r	.	.	.
=39	=39	=39	=39
8r	.	1r	.
8g	Heh	.	.
8g	heh	.	.
8r	.	.	.
8a	heh	.	.
8r	.	.	.
4cc	hey!	.	.
=40	=40	=40	=40
1r	.	1r	.
=41	=41	=41	=41
2.r	.	1r	.
8g	She's	.	.
8g	a	.	.
=42	=42	=42	=42
8g	sup-	1r	.
8g	-er	.	.
8a	freak	.	.
8r	.	.	.
8r	.	.	.
8g	sup-	.	.
8g	-er	.	.
8a	freak	.	.
=43	=43	=43	=43
8r	.	1r	.
8d	She's	.	.
8d	sup-	.	.
8c	-er	.	.
8e	freak-	.	.
4.c	-y	.	.
=44	=44	=44	=44
4A	yaow	1r	.
4r	.	.	.
2r	.	.	.
=45	=45	=45	=45
1r	.	1r	.
=46	=46	=46	=46
8g	sup-	1r	.
8g	-er	.	.
8a	freak	.	.
8r	.	.	.
8r	.	.	.
8g	sup-	.	.
8g	-er	.	.
8a	freak	.	.
=47	=47	=47	=47
2.r	.	1r	.
8A	She's	.	.
8c	a	.	.
=48	=48	=48	=48
8e	ve-	1r	.
8e	-ry	.	.
8d	spe-	.	.
8c	-cial	.	.
2[c	girl	.	.
=49	=49	=49	=49
4c]	_	1r	.
4r	.	.	.
4r	.	.	.
8A	From	.	.
8c	her	.	.
=50	=50	=50	=50
8e	head	1r	.
8f#	down	.	.
8e	to	.	.
8c	her	.	.
8c	toe-	.	.
4.[e	-nails	.	.
=51	=51	=51	=51
4e]	_	1r	.
4r	.	.	.
4r	.	.	.
8e	Yeah	.	.
8g	she'll	.	.
=52	=52	=52	=52
8a	wait	1r	.
8a	for	.	.
8e	me	.	.
8d	at	.	.
8e	back-	.	.
8d	-stage	.	.
8d	with	.	.
8c	her	.	.
=53	=53	=53	=53
4d	girl-	1r	.
2c	-friends	.	.
4r	.	.	.
=54	=54	=54	=54
16A	in	1r	.
8G	a	.	.
16A	lim-	.	.
8G	-ou-	.	.
4.d	-sine	.	.
4r	.	.	.
=55	=55	=55	=55
2r	.	1r	.
8r	.	.	.
8A	Three's	.	.
8A	not	.	.
8c	a	.	.
=56	=56	=56	=56
4e	crowd	1r	.
8f	to	.	.
8.e	her	.	.
8.d	she	.	.
4[e	says	.	.
=57	=57	=57	=57
4e]	_	1r	.
4r	.	.	.
8r	.	.	.
8A	Room	.	.
8A	se-	.	.
8c	-ven	.	.
=58	=58	=58	=58
8e	four-	1r	.
8f	-teen	.	.
8e	I'll	.	.
8c	be	.	.
8c	wai-	.	.
4.e	-ting	.	.
=59	=59	=59	=59
2r	.	1r	.
4r	.	.	.
8e	When	.	.
8g	I	.	.
=60	=60	=60	=60
8a	get	1r	.
8a	there	.	.
8e	she's	.	.
8f	got	.	.
8g	in-	.	.
8e	-cense	.	.
8d	wine	.	.
8c	and	.	.
=61	=61	=61	=61
4d	can-	1r	.
2c	-dles	.	.
8r	.	.	.
8G	It's	.	.
=62	=62	=62	=62
16A	such	1r	.
8.G	a	.	.
8A	frea-	.	.
8G	-ky	.	.
2d	scene	.	.
=63	=63	=63	=63
2r	.	1r	.
4.r	.	.	.
8G	That	.	.
=64	=64	=64	=64
8A	girl	1r	.
8G	is	.	.
16A	pre-	.	.
8G	-tty	.	.
8.d	kink-	.	.
4.c	-y	.	.
=65	=65	=65	=65
2r	.	1r	.
4.r	.	.	.
8G	The	.	.
=66	=66	=66	=66
16A	kin-	1r	.
8G	-da	.	.
8A	girl	.	.
16G	you	.	.
16d	read	.	.
8.d	a-	.	.
4.c	-bout	.	.
=67	=67	=67	=67
2r	.	1r	.
4.r	.	.	.
8G	That	.	.
=68	=68	=68	=68
8A	girl	1r	.
8G	is	.	.
16A	pre-	.	.
8G	-tty	.	.
8.d	wild	.	.
4.c	now	.	.
=69	=69	=69	=69
2r	.	1r	.
4.r	.	.	.
8G	I'd	.	.
=70	=70	=70	=70
8A	real-	1r	.
16G	-ly	.	.
8A	like	.	.
16G	to	.	.
4d	taste	.	.
8c	her	.	.
4r	.	.	.
=71	=71	=71	=71
1r	.	1r	.
=72	=72	=72	=72
4a	She's	1r	.
4g	al-	.	.
16e	-right	.	.
16d	_	.	.
8c	_	.	.
4r	.	.	.
=73	=73	=73	=73
4a	She's	1r	.
8.g	al-	.	.
8.a	-right	.	.
8r	.	.	.
8r	.	.	.
8a	That	.	.
=74	=74	=74	=74
8r	.	1r	.
8cc	girl's	.	.
8a	_	.	.
8a	all	.	.
8g	_	.	.
8g	right	.	.
8e	_	.	.
8[d	_	.	.
=75	=75	=75	=75
8d]	_	1r	.
4d	with	.	.
8[c	me	.	.
2c_	_	.	.
=76	=76	=76	=76
2c]	_	1r	.
4.r	.	.	.
8[d	Yeah	.	.
=77	=77	=77	=77
8d]	_	1r	.
8c	_	.	.
2A	_	.	.
4r	.	.	.
=78	=78	=78	=78
8r	.	1r	.
8g	Heh	.	.
8g	heh	.	.
8r	.	.	.
8a	heh	.	.
8r	.	.	.
4cc	hey!	.	.
=79	=79	=79	=79
1r	.	1r	.
=80	=80	=80	=80
2.r	.	1r	.
8g	She's	.	.
8g	a	.	.
=81	=81	=81	=81
8g	sup-	1r	.
8g	-er	.	.
8a	freak	.	.
8r	.	.	.
8r	.	.	.
8g	sup-	.	.
8g	-er	.	.
8a	freak	.	.
=82	=82	=82	=82
8r	.	1r	.
8d	She's	.	.
8d	sup-	.	.
8c	-er	.	.
8e	freak-	.	.
4.c	-y	.	.
=83	=83	=83	=83
4A	yaow	1r	.
4r	.	.	.
2r	.	.	.
=84	=84	=84	=84
4.r	.	1r	.
8a	Temp-	.	.
8a	-ta-	.	.
8g	-tions	.	.
4a	sing	.	.
=85	=85	=85	=85
1r	.	4A	Oh
.	.	4c	_
.	.	4d	_
.	.	4e	_
=86	=86	=86	=86
1r	.	4d	_
.	.	4c	_
.	.	4A	_
.	.	4A	_
=87	=87	=87	=87
8g	Sup-	2A	_
8g	-er	.	.
8a	freak	.	.
8r	.	.	.
8r	.	2r	.
8g	sup-	.	.
8g	-er	.	.
8a	freak	.	.
=88	=88	=88	=88
8r	.	1r	.
8g	The	.	.
8g	girl's	.	.
8g	a	.	.
8g	sup-	.	.
8g	-er	.	.
8a	freak	.	.
8r	.	.	.
=89	=89	=89	=89
1r	.	4A	Oh
.	.	4c	_
.	.	4d	_
.	.	4e	_
=90	=90	=90	=90
2.r	.	4d	_
.	.	4c	_
.	.	2[A	_
8A	She's	.	.
8c	a	.	.
=91	=91	=91	=91
8e	ve-	2A]	_
8e	-ry	.	.
8d	kink-	.	.
8c	-y	.	.
2[c	girl	2r	.
=92	=92	=92	=92
4c]	_	1r	.
4r	.	.	.
8r	.	.	.
8A	The	.	.
8A	kind	.	.
8c	you	.	.
=93	=93	=93	=93
8e	don't	1r	.
8f#	take	.	.
8e	home	.	.
8c	to	.	.
8c	mo-	.	.
4.e	-ther	.	.
=94	=94	=94	=94
8r	.	1r	.
8r	.	.	.
4r	.	.	.
8r	.	.	.
8e	And	.	.
8e	she	.	.
8g	will	.	.
=95	=95	=95	=95
8a	ne-	1r	.
8a	-ver	.	.
8e	let	.	.
8d	your	.	.
8e	spi-	.	.
8d	-rits	.	.
8d	down	.	.
8[c	_	.	.
=96	=96	=96	=96
2c]	_	1r	.
4r	.	.	.
8A	once	.	.
8G	you	.	.
=97	=97	=97	=97
16A	get	1r	.
8G	her	.	.
8.A	off	.	.
8G	the	.	.
4d	street	.	.
4r	.	.	.
=98	=98	=98	=98
4.r	.	1r	.
4a	Blow	.	.
8e	da-	.	.
4e	-ddy!	.	.
=99	=99	=99	=99
1r	.	1r	.
=100	=100	=100	=100
1r	.	1r	.
=101	=101	=101	=101
1r	.	1r	.
=102	=102	=102	=102
1r	.	1r	.
=103	=103	=103	=103
1r	.	1r	.
=104	=104	=104	=104
1r	.	1r	.
=105	=105	=105	=105
1r	.	1r	.
=106	=106	=106	=106
1r	.	1r	.
=107	=107	=107	=107
1r	.	1r	.
=108	=108	=108	=108
1r	.	1r	.
=109	=109	=109	=109
1r	.	1r	.
=110	=110	=110	=110
1r	.	1r	.
r;	.	r;	.
r;	.	r;	.
*-	*-	*-	*-
!!!ENC: Nathaniel Condit-Schultz